icons/css-filled.svg

<svg xmlns="http://www.w3.org/2000/svg" width="256" height="256"><path fill="#639" d="M196 0H0v196c0 33.137 26.863 60 60 60h136c33.137 0 60-26.863 60-60V60c0-33.137-26.863-60-60-60"/><path fill="#fff" d="M209.034 235.494c-8.292 0-14.633-2.411-19.072-7.257-4.39-4.872-6.676-11.822-6.881-20.9h17.869c.102 8.028 2.923 12.052 8.468 12.052 2.826 0 4.828-.896 5.983-2.667 1.129-1.766 1.72-4.59 1.72-8.461 0-3.077-.77-5.642-2.26-7.667a18.74 18.74 0 0 0-7.547-5.412L200.691 192c-5.903-2.821-10.191-6.154-12.836-10.053-2.567-3.873-3.85-9.308-3.85-16.256 0-7.772 2.261-14.08 6.751-18.929 4.621-4.846 10.911-7.255 18.944-7.255 7.757 0 13.762 2.384 17.997 7.127 4.313 4.772 6.571 11.592 6.753 20.516h-17.201a18.5 18.5 0 0 0-1.72-8.463q-1.461-2.92-5.699-2.921c-5.03 0-7.546 2.998-7.546 8.973 0 3.028.614 5.386 1.848 7.18a16.7 16.7 0 0 0 6.495 4.465l6.341 2.796c6.546 3 11.269 6.668 14.169 11.105 2.926 4.411 4.365 10.309 4.365 17.695 0 8.847-2.312 15.641-7.009 20.385-4.672 4.743-11.167 7.129-19.456 7.129zm-57.707 0c-8.295 0-14.633-2.411-19.075-7.257-4.39-4.872-6.674-11.822-6.879-20.9h17.867c.102 8.028 2.926 12.052 8.473 12.052 2.821 0 4.823-.896 5.952-2.667 1.157-1.766 1.721-4.59 1.721-8.461 0-3.077-.743-5.642-2.233-7.667a18.7 18.7 0 0 0-7.547-5.412L142.984 192c-5.906-2.821-10.192-6.154-12.836-10.053-2.568-3.873-3.85-9.308-3.85-16.256 0-7.772 2.258-14.08 6.75-18.929 4.621-4.846 10.911-7.255 18.944-7.255 7.755 0 13.76 2.384 17.972 7.127 4.364 4.772 6.597 11.592 6.776 20.516h-17.198a18.5 18.5 0 0 0-1.721-8.463q-1.462-2.92-5.698-2.921c-5.033 0-7.55 2.998-7.55 8.973 0 3.028.617 5.386 1.849 7.18a16.7 16.7 0 0 0 6.494 4.465l6.342 2.796c6.546 3 11.269 6.668 14.172 11.105 2.9 4.411 4.362 10.309 4.362 17.695q0 13.27-7.007 20.385c-4.672 4.743-11.166 7.129-19.458 7.129m-60.096 0q-12.17 0-19.331-6.617c-4.774-4.383-7.137-10.975-7.137-19.694V166.1c0-8.665 2.516-15.232 7.547-19.745 5.11-4.462 11.809-6.717 20.101-6.717 8.036 0 14.374 2.306 19.072 6.871 4.751 4.59 7.137 11.412 7.137 20.516v3.41H99.702v-3.308c0-3.512-.771-6.103-2.261-7.795a6.78 6.78 0 0 0-5.545-2.642c-3.079 0-5.26 1.05-6.494 3.179a20.2 20.2 0 0 0-1.721 9.385v37.443c0 7.821 2.75 11.796 8.218 11.873 2.565 0 4.49-.924 5.826-2.77a13.25 13.25 0 0 0 1.977-7.797v-2.793h18.918v2.923c0 6.078-1.18 11.154-3.568 15.207a22.74 22.74 0 0 1-9.78 9.128 31.1 31.1 0 0 1-14.041 3.026"/></svg>

<svg xmlns="http://www.w3.org/2000/svg" width="256" height="256" viewBox="0 0 256 256">
<path fill="#639" d="M196 0H0L1.90735e-06 196C1.90735e-06 229.137 26.8629 256 60 256H196C229.137 256 256 229.137 256 196V60C256 26.8629 229.137 0 196 0Z" />
<path fill="#fff" d="M209.034,235.494C200.742,235.494 194.401,233.083 189.962,228.237C185.572,223.365 183.286,216.415 183.081,207.337L200.95,207.337C201.052,215.365 203.873,219.389 209.418,219.389C212.244,219.389 214.246,218.493 215.401,216.722C216.53,214.956 217.121,212.132 217.121,208.261C217.121,205.184 216.351,202.619 214.861,200.594C212.839,198.185 210.244,196.324 207.314,195.182L200.691,192C194.788,189.179 190.5,185.846 187.855,181.947C185.288,178.074 184.005,172.639 184.005,165.691C184.005,157.919 186.266,151.611 190.756,146.762C195.377,141.916 201.667,139.507 209.7,139.507C217.457,139.507 223.462,141.891 227.697,146.634C232.01,151.406 234.268,158.226 234.45,167.15L217.249,167.15C217.352,164.232 216.763,161.334 215.529,158.687C214.556,156.741 212.654,155.766 209.83,155.766C204.8,155.766 202.284,158.764 202.284,164.739C202.284,167.767 202.898,170.125 204.132,171.919C205.909,173.905 208.136,175.436 210.627,176.384L216.968,179.18C223.514,182.18 228.237,185.848 231.137,190.285C234.063,194.696 235.502,200.594 235.502,207.98C235.502,216.827 233.19,223.621 228.493,228.365C223.821,233.108 217.326,235.494 209.037,235.494L209.034,235.494ZM151.327,235.494C143.032,235.494 136.694,233.083 132.252,228.237C127.862,223.365 125.578,216.415 125.373,207.337L143.24,207.337C143.342,215.365 146.166,219.389 151.713,219.389C154.534,219.389 156.536,218.493 157.665,216.722C158.822,214.956 159.386,212.132 159.386,208.261C159.386,205.184 158.643,202.619 157.153,200.594C155.132,198.185 152.536,196.324 149.606,195.182L142.984,192C137.078,189.179 132.792,185.846 130.148,181.947C127.58,178.074 126.298,172.639 126.298,165.691C126.298,157.919 128.556,151.611 133.048,146.762C137.669,141.916 143.959,139.507 151.992,139.507C159.747,139.507 165.752,141.891 169.964,146.634C174.328,151.406 176.561,158.226 176.74,167.15L159.542,167.15C159.644,164.232 159.055,161.334 157.821,158.687C156.846,156.741 154.947,155.766 152.123,155.766C147.09,155.766 144.573,158.764 144.573,164.739C144.573,167.767 145.19,170.125 146.422,171.919C148.199,173.905 150.426,175.436 152.916,176.384L159.258,179.18C165.804,182.18 170.527,185.848 173.43,190.285C176.33,194.696 177.792,200.594 177.792,207.98C177.792,216.827 175.457,223.621 170.785,228.365C166.113,233.108 159.619,235.494 151.327,235.494ZM91.231,235.494C83.116,235.494 76.675,233.288 71.9,228.877C67.126,224.494 64.763,217.902 64.763,209.183L64.763,166.1C64.763,157.435 67.279,150.868 72.31,146.355C77.42,141.893 84.119,139.638 92.411,139.638C100.447,139.638 106.785,141.944 111.483,146.509C116.234,151.099 118.62,157.921 118.62,167.025L118.62,170.435L99.702,170.435L99.702,167.127C99.702,163.615 98.931,161.024 97.441,159.332C96.122,157.617 94.059,156.634 91.896,156.69C88.817,156.69 86.636,157.74 85.402,159.869C84.088,162.816 83.498,166.034 83.681,169.254L83.681,206.697C83.681,214.518 86.431,218.493 91.899,218.57C94.464,218.57 96.389,217.646 97.725,215.8C99.176,213.469 99.867,210.743 99.702,208.003L99.702,205.21L118.62,205.21L118.62,208.133C118.62,214.211 117.44,219.287 115.052,223.34C112.782,227.294 109.373,230.475 105.272,232.468C100.892,234.559 96.083,235.595 91.231,235.494Z" />
</svg>
